X: 1008
T: O'Gallagher's Frolics
B:O'Neill's 1008
Z:Transcribed by Dan G. Petersen, dangp@post6.tele.dk
M:6/8
L:1/8
K:Dm
A,|D>ED F>ED|A>BA c>AG|ABA A2G|FAF GE^C|
D>ED F>ED|A>BA c>AG|AGF EDE|FDD D2:|
A|d2e f>ed|f2g agf|cef gec|gec gec|
ded fed|ced cAG|AGF EDE|FDD D2:|


